X:1
T:Title
%%score { ( 1 3 ) | 2 }
L:1/8
M:4/4
K:Eb
V:1 treble nm="Grand Piano"
V:3 treble 
V:2 bass 
V:1
 z4 z2[Q:1/4=106] [CE]>[=B,D] | [CE]2 [CEA]2 [B,EG]2 [CEA]2 | [Ac]2 [Ae]4 [CE]>[=B,D] | %3
 [CE]2 [Ec]2 [F_d]2 [Ec]2 |[M:3/4] c2 B4 |[M:1/4] [_DB]>[D=A] |[M:4/4] B2 B2 c2 B2 | B2 A4 A>c | %8
 [EB]2 [EB]2 [DB]2 [DB]2 |[M:3/4] B4 z2 |[M:1/4] E>_D |[M:4/4] F6 z2 | A6 z2 | %13
 B>B B>B B2 [EA]>[EB] | [Ec]4[K:bass] z4 |[M:3/4][K:treble] F6 |[M:1/4] G>E |[M:4/4] A6 z2 | %18
 [FB]>[FB] [FB]>[FB] [CEA]2 [B,EG]>[_DEB] |[M:3/4] [CEA]6 |] %20
V:2
 z4 z2 [A,,A,]>[A,,A,] | [A,,A,]2 A,,2 A,,2 A,,2 | A,2 [A,C]4 [A,,A,]>[A,,A,] | %3
 [A,,A,]2 [A,,A,]2 [A,,A,]2 [A,,A,]2 |[M:3/4] [B,,F,]6 |[M:1/4] [B,,F,]>[B,,F,] | %6
[M:4/4] [E,G,_D]2 [E,G,D]2 [E,G,D]2 [E,G,D]2 | [F,A,C]2 [F,A,C]4 [F,A,C]>[F,A,E] | %8
 [B,,G,]2 [B,,G,]2 [B,,F,]2 [B,,F,]2 |[M:3/4] [E,G,_D]4 z2 |[M:1/4] z2 | %11
[M:4/4] z2 [B,,G,]>[B,,G,] [B,,G,]2 z2 | z2 [C,A,]>[C,A,] [C,A,]2 [C,A,]>[A,,A,] | %13
 [E,G,E]>[E,G,E] [E,G,E]>[E,G,E] [E,G,E]2 [C,A,]>[E,G,] | A,2 A,,>A,, A,,2 z2 | %15
[M:3/4] z2 [B,,G,]>[B,,G,] [B,,G,]2 |[M:1/4] z2 |[M:4/4] z2 A,,>A,, A,,2 [A,,A,]>[A,,A,] | %18
 [_D,A,]>[D,A,] [D,_D]>[D,D] E,2 E,>E, |[M:3/4] A,,6 |] %20
V:3
 x8 | x8 | x8 | x8 |[M:3/4] D6 |[M:1/4] x2 |[M:4/4] x8 | x8 | x8 |[M:3/4] x6 |[M:1/4] x2 | %11
[M:4/4] z2 _D>D D2 G>E | z2 E>E E2 [EA]>[Ec] | x8 | z2[K:bass] A,>A, A,2 E>D | %15
[M:3/4][K:treble] z2 _D>D D2 |[M:1/4] x2 |[M:4/4] z2 [CE]>[CE] [CE]2 [CA]>[Ec] | x8 |[M:3/4] x6 |] %20

